public/images/swift.svg

<svg fill="none" height="800" viewBox="0 0 32 32" width="800" xmlns="http://www.w3.org/2000/svg" xmlns:xlink="http://www.w3.org/1999/xlink"><linearGradient id="a" gradientUnits="userSpaceOnUse" x1="15.0103" x2="15.0103" y1="2" y2="27.0013"><stop offset="0" stop-color="#f88a36"/><stop offset="1" stop-color="#fd2020"/></linearGradient><path d="m22.1356 25.2715c-3.3006 1.8985-7.8389 2.0936-12.40481.1451-3.69692-1.5661-6.7644-4.3076-8.73079-7.4399.94387.7831 2.04503 1.4098 3.22484 1.9577 4.71526 2.2006 9.42956 2.0499 12.74716.0056-4.7194-3.6026-8.73574-8.3074-11.7245-12.14453-.62951-.6266-1.10145-1.4098-1.57338-2.11463 3.61813 3.2893 9.36018 7.43986 11.40478 8.61516-4.3254-4.54279-8.1798-10.1813-8.0228-10.02497 6.8432 6.89197 13.2146 10.80797 13.2146 10.80797.2108.1184.3735.2169.5043.305.1379-.3493.2588-.712.3607-1.088 1.1011-3.9942-.157-8.537-2.9103-12.296 6.3708 3.83752 10.1467 11.0425 8.5731 17.0732-.041.1627-.0856.3233-.1337.481 3.1458 3.9161 2.336 8.1342 1.9428 7.3511-1.7066-3.3252-4.8658-2.3084-6.472-1.6338z" fill="url(#a)"/></svg>

<?xml version="1.0" encoding="utf-8"?><!-- Uploaded to: SVG Repo, www.svgrepo.com, Generator: SVG Repo Mixer Tools -->
<svg width="800px" height="800px" viewBox="0 0 32 32" fill="none" xmlns="http://www.w3.org/2000/svg">
<path d="M22.1356 25.2715C18.835 27.17 14.2967 27.3651 9.73079 25.4166C6.03387 23.8505 2.96639 21.109 1 17.9767C1.94387 18.7598 3.04503 19.3865 4.22484 19.9344C8.9401 22.135 13.6544 21.9843 16.972 19.94C12.2526 16.3374 8.23626 11.6326 5.2475 7.79547C4.61799 7.16887 4.14605 6.38567 3.67412 5.68084C7.29225 8.97014 13.0343 13.1207 15.0789 14.296C10.7535 9.75321 6.8991 4.1147 7.0561 4.27103C13.8993 11.163 20.2707 15.079 20.2707 15.079C20.4815 15.1974 20.6442 15.2959 20.775 15.384C20.9129 15.0347 21.0338 14.672 21.1357 14.296C22.2368 10.3018 20.9787 5.759 18.2254 2C24.5962 5.83752 28.3721 13.0425 26.7985 19.0732C26.7575 19.2359 26.7129 19.3965 26.6648 19.5542C29.8106 23.4703 29.0008 27.6884 28.6076 26.9053C26.901 23.5801 23.7418 24.5969 22.1356 25.2715Z" fill="url(#paint0_linear_87_8231)"/>
<defs>
<linearGradient id="paint0_linear_87_8231" x1="15.0103" y1="2" x2="15.0103" y2="27.0013" gradientUnits="userSpaceOnUse">
<stop stop-color="#F88A36"/>
<stop offset="1" stop-color="#FD2020"/>
</linearGradient>
</defs>
</svg>
